findly-builder/apps/searchassist/src/assets/icons/export.svg

<svg width="16" height="16" viewBox="0 0 16 16" fill="none" xmlns="http://www.w3.org/2000/svg">
<path d="M2.5 1C1.67747 1 1 1.67747 1 2.5V12.5C1 13.3225 1.67747 14 2.5 14H12.5C13.3225 14 14 13.3225 14 12.5V11H13V12.5C13 12.7815 12.7815 13 12.5 13H2.5C2.21853 13 2 12.7815 2 12.5V2.5C2 2.21853 2.21853 2 2.5 2H12.5C12.7815 2 13 2.21853 13 2.5V4H14V2.5C14 1.67747 13.3225 1 12.5 1H2.5ZM10.7285 4.02148L10.0215 4.72852L12.293 7H5V8H12.293L10.0215 10.2715L10.7285 10.9785L14.207 7.5L10.7285 4.02148Z" fill="black"/>
</svg>

<svg width="16" height="16" fill="none" xmlns="http://www.w3.org/2000/svg"><path d="M2.5 1C1.677 1 1 1.677 1 2.5v10c0 .822.677 1.5 1.5 1.5h10c.822 0 1.5-.678 1.5-1.5V11h-1v1.5c0 .281-.219.5-.5.5h-10a.493.493 0 0 1-.5-.5v-10c0-.281.219-.5.5-.5h10c.281 0 .5.219.5.5V4h1V2.5c0-.823-.678-1.5-1.5-1.5h-10Zm8.229 3.021-.707.708L12.293 7H5v1h7.293l-2.271 2.271.707.707L14.207 7.5l-3.479-3.479Z" fill="#000"/></svg>
